icons/stenofm.svg

<svg width="32" height="32" viewBox="0 0 32 32" fill="none" xmlns="http://www.w3.org/2000/svg">
<path d="M3.36667 28.6333C0.913335 26.18 0 22.18 0 16C0 9.82 0.913335 5.82 3.36667 3.36667C5.82 0.913333 9.82 0 16 0C22.18 0 26.18 0.913333 28.6333 3.36667C31.0867 5.82 32 9.82 32 16C32 22.18 31.0867 26.18 28.6333 28.6333C26.18 31.0867 22.18 32 16 32C9.82 32 5.82 31.0867 3.36667 28.6333Z" fill="#F9CE49"/>
<path d="M22.384 16.216L24.928 24.416C24.968 24.56 24.928 24.712 24.832 24.808C24.76 24.888 24.656 24.928 24.552 24.928C24.512 24.928 24.472 24.928 24.432 24.912L16.232 22.368C16.168 22.352 16.112 22.32 16.064 22.272L6.67999 12.896C5.43199 11.648 5.43199 9.61599 6.67999 8.36799L8.37599 6.67199C9.58399 5.46399 11.696 5.46399 12.904 6.67199L22.288 16.048C22.328 16.096 22.368 16.152 22.384 16.216Z" fill="#333333"/>
<path d="M21.608 23.208L16.832 21.728L17.232 20.024L19.096 19.336C19.208 19.296 19.296 19.208 19.336 19.104L20.024 17.24L21.728 16.84L23.216 21.6C22.512 21.952 21.952 22.512 21.608 23.208Z" fill="#FEFBE8"/>
<path d="M19.792 16.464L20.704 16.248L15.008 10.552C14.752 10.672 14.504 10.8 14.264 10.936L19.792 16.464Z" fill="#F9CE49"/>
<path d="M14.816 9.76798C14.584 9.56798 14.352 9.37598 14.096 9.20798C14 9.41598 13.936 9.63998 13.936 9.88798C13.936 9.99198 13.952 10.088 13.976 10.184C14.248 10.032 14.528 9.89598 14.816 9.76798Z" fill="#F9CE49"/>
<path d="M9.76801 7.13598C9.84801 6.96798 9.94402 6.79998 10.04 6.63998C9.65602 6.73598 9.29602 6.91198 9.00802 7.18398C9.25602 7.15998 9.51201 7.13598 9.76801 7.13598Z" fill="#F9CE49"/>
<path d="M9.44002 7.95998C9.00002 7.98398 8.56801 8.04798 8.15202 8.14398C8.04801 8.55998 7.99201 8.99198 7.96001 9.43198C8.35201 9.31198 8.76002 9.22398 9.18402 9.17598C9.23201 8.75998 9.31202 8.35198 9.44002 7.95998Z" fill="#F9CE49"/>
<path d="M7.14401 9.75998C7.15201 9.50398 7.16801 9.24798 7.19201 8.99198C6.91201 9.30398 6.72002 9.66398 6.62402 10.048C6.79202 9.94398 6.96801 9.84798 7.14401 9.75998Z" fill="#F9CE49"/>
<path d="M6.58401 11.04C6.64801 11.44 6.82401 11.824 7.10401 12.16C7.20002 12.08 7.28801 11.984 7.39201 11.912C7.29601 11.496 7.21601 11.072 7.17601 10.64C6.96801 10.76 6.77601 10.896 6.58401 11.04Z" fill="#F9CE49"/>
<path d="M9.14401 9.99198C8.73601 10.048 8.33601 10.152 7.96001 10.288C7.98401 10.704 8.03202 11.112 8.12002 11.512C8.48002 11.352 8.86402 11.24 9.27202 11.184C9.19202 10.8 9.15201 10.4 9.14401 9.99198Z" fill="#F9CE49"/>
<path d="M9.49601 11.968C9.08001 12.016 8.69602 12.12 8.33601 12.296C8.46402 12.68 8.62402 13.048 8.80802 13.4C9.13601 13.232 9.49601 13.128 9.88801 13.128C9.93601 13.128 9.99202 13.144 10.04 13.144C9.82402 12.776 9.64001 12.384 9.49601 11.968Z" fill="#F9CE49"/>
<path d="M9.20802 14.088C9.37602 14.344 9.56801 14.576 9.76801 14.808C9.89601 14.52 10.04 14.24 10.184 13.968C10.088 13.944 9.99201 13.928 9.88801 13.928C9.64001 13.928 9.41601 13.992 9.20802 14.088Z" fill="#F9CE49"/>
<path d="M10.344 11.984C10.48 12.32 10.664 12.632 10.864 12.936C11.032 12.712 11.2 12.504 11.376 12.304C11.048 12.152 10.712 12.032 10.344 11.984Z" fill="#F9CE49"/>
<path d="M9.94402 9.93598C9.94402 10.352 10 10.752 10.088 11.144C10.552 11.168 11 11.256 11.424 11.408C11.264 10.992 11.176 10.544 11.152 10.08C10.76 9.99198 10.36 9.93598 9.94402 9.93598Z" fill="#F9CE49"/>
<path d="M9.99201 9.13598C10.4 9.14398 10.8 9.18398 11.192 9.26398C11.248 8.86398 11.352 8.47198 11.512 8.11198C11.12 8.02398 10.704 7.97598 10.288 7.95198C10.144 8.32798 10.048 8.72798 9.99201 9.13598Z" fill="#F9CE49"/>
<path d="M11.032 6.59198C10.896 6.77598 10.76 6.96798 10.648 7.16798C11.08 7.20798 11.504 7.28798 11.92 7.39198C11.992 7.28798 12.08 7.19998 12.168 7.09598C11.84 6.82398 11.448 6.65598 11.032 6.59198Z" fill="#F9CE49"/>
<path d="M13.408 8.80798C13.056 8.62398 12.688 8.46398 12.304 8.33598C12.136 8.68798 12.024 9.07998 11.976 9.49598C12.392 9.63198 12.784 9.81598 13.152 10.04C13.152 9.99198 13.136 9.94398 13.136 9.88798C13.136 9.49598 13.24 9.13598 13.408 8.80798Z" fill="#F9CE49"/>
<path d="M12.936 10.864C12.64 10.664 12.32 10.48 11.984 10.344C12.032 10.712 12.152 11.048 12.296 11.376C12.504 11.192 12.72 11.024 12.936 10.864Z" fill="#F9CE49"/>
<path d="M13.584 11.36C13.144 11.672 12.728 12.008 12.352 12.392L18.608 18.656L18.648 18.64L19.248 17.024L13.584 11.36Z" fill="#F9CE49"/>
</svg>

<svg xmlns="http://www.w3.org/2000/svg" width="32" height="32" fill="none" viewBox="0 0 32 32">
  <path fill="#F9CE49" d="M3.367 28.633C.913 26.18 0 22.18 0 16 0 9.82.913 5.82 3.367 3.367 5.82.913 9.82 0 16 0c6.18 0 10.18.913 12.633 3.367C31.087 5.82 32 9.82 32 16c0 6.18-.913 10.18-3.367 12.633C26.18 31.087 22.18 32 16 32c-6.18 0-10.18-.913-12.633-3.367Z"/>
  <path fill="#333" d="m22.384 16.216 2.544 8.2c.04.144 0 .296-.096.392a.375.375 0 0 1-.28.12c-.04 0-.08 0-.12-.016l-8.2-2.544a.356.356 0 0 1-.168-.096L6.68 12.896a3.206 3.206 0 0 1 0-4.528l1.696-1.696c1.208-1.208 3.32-1.208 4.528 0l9.384 9.376a.44.44 0 0 1 .096.168Z"/>
  <path fill="#FEFBE8" d="m21.608 23.208-4.776-1.48.4-1.704 1.864-.688c.112-.04.2-.128.24-.232l.688-1.864 1.704-.4 1.488 4.76a3.556 3.556 0 0 0-1.608 1.608Z"/>
  <path fill="#F9CE49" d="m19.792 16.464.912-.216-5.696-5.696c-.256.12-.504.248-.744.384l5.528 5.528Zm-4.976-6.696a6.942 6.942 0 0 0-.72-.56c-.096.208-.16.432-.16.68 0 .104.016.2.04.296.272-.152.552-.288.84-.416ZM9.768 7.136a5.97 5.97 0 0 1 .272-.496 2.3 2.3 0 0 0-1.032.544c.248-.024.504-.048.76-.048Zm-.328.824a7.57 7.57 0 0 0-1.288.184c-.104.416-.16.848-.192 1.288.392-.12.8-.208 1.224-.256A6.2 6.2 0 0 1 9.44 7.96Zm-2.296 1.8c.008-.256.024-.512.048-.768a2.48 2.48 0 0 0-.568 1.056c.168-.104.344-.2.52-.288Zm-.56 1.28c.064.4.24.784.52 1.12.096-.08.184-.176.288-.248a9.596 9.596 0 0 1-.216-1.272c-.208.12-.4.256-.592.4Zm2.56-1.048c-.408.056-.808.16-1.184.296.024.416.072.824.16 1.224.36-.16.744-.272 1.152-.328a6.474 6.474 0 0 1-.128-1.192Zm.352 1.976c-.416.048-.8.152-1.16.328.128.384.288.752.472 1.104a2.349 2.349 0 0 1 1.08-.272c.048 0 .104.016.152.016a6.56 6.56 0 0 1-.544-1.176Zm-.288 2.12c.168.256.36.488.56.72.128-.288.272-.568.416-.84a1.201 1.201 0 0 0-.296-.04c-.248 0-.472.064-.68.16Zm1.136-2.104c.136.336.32.648.52.952.168-.224.336-.432.512-.632a3.52 3.52 0 0 0-1.032-.32Zm-.4-2.048c0 .416.056.816.144 1.208.464.024.912.112 1.336.264a4.314 4.314 0 0 1-.272-1.328 5.487 5.487 0 0 0-1.208-.144Zm.048-.8c.408.008.808.048 1.2.128.056-.4.16-.792.32-1.152a7.642 7.642 0 0 0-1.224-.16 5.35 5.35 0 0 0-.296 1.184Zm1.04-2.544a5.544 5.544 0 0 0-.384.576c.432.04.856.12 1.272.224.072-.104.16-.192.248-.296a2.322 2.322 0 0 0-1.136-.504Zm2.376 2.216a7.512 7.512 0 0 0-1.104-.472c-.168.352-.28.744-.328 1.16.416.136.808.32 1.176.544 0-.048-.016-.096-.016-.152 0-.392.104-.752.272-1.08Zm-.472 2.056a5.22 5.22 0 0 0-.952-.52c.048.368.168.704.312 1.032.208-.184.424-.352.64-.512Zm.648.496a8.96 8.96 0 0 0-1.232 1.032l6.256 6.264.04-.016.6-1.616-5.664-5.664Z"/>
</svg>
